!!!OTL: Vertrauen.
!!!OTL-incipit:OB AUCH TRUEBE SEI DER HIMMEL
!!!COM: Fr. Schneider
!!!ARE: Europa, Mitteleuropa, Deutschland
!!!SCT: F0330
!!!TXL: @@DE
!!!YEM: Copyright 1995, estate of Helmut Schaffrath.
**kern	**text
*ICvox	*
*clefG2	*
*M4/4	*
*met(c)	*
*k[]	*
*C:	*
!LO:TX:a:t=Langſam.	!
!LO:TX:a:t=Dreiſtimmig.	!
!LO:TX:a:t=P:only the highest voice encoded:problem	!
{4cc/	1._Ob
4g	auch
=1	=1
4.ee/	trü-
8dd/	-be
4cc/	ſei
4b/	der
=2	=2
4cc/	Himmel,
4cc/}	.
{4b/	dunkel
4cc/	.
=3	=3
4dd	un-
4ee	-ſer
4ff	Le-
4ee	-bens-
=4	=4
2dd}	-lauf;
{4ee	in
4dd	der
=5	=5
4dd/	Sor-
4dd/	-gen
4dd/	Angſt-
8ee/L	-ge-
8ff#J	.
=6	=6
4gg/	-wimmel
4dd/}	.
{8ee/L	rich-
8ddJ	.
8cc/L	-tet
8bJ	.
=7	=7
8b/L	nur
8aJ	.
8b/L	den
8ccJ	.
4b/	Blick
4a	hin-
=8	=8
2g}	-auf.
{8gL	O-
8bJ	.
8dd/L	-ben
8bJ	.
=9	=9
4cc/	aus
4cc/	des
4cc/	Lich-
8dd/L	-tes
8eeJ	.
=10	=10
4dd/	Quelle
4dd/}	.
{8gL	ſtrömt
8bJ	.
8dd/L	doch
8bJ	.
=11	=11
4cc/	endlich
4cc/	.
4cc/	Glanʒ
8dd/L	her-
8eeJ	.
=12	=12
2dd}	-ab,
{4.gg	und
8ff	die
=13	=13
4ee	trüb-
4ee	-ſte
4ee/	Nacht
4ee/	wird
=14	=14
4ff/	hel-
4ff/}	-le,
{8ff/L	und
8eeJ	.
4dd/	ʒur
=15	=15
4cc/	Blumen-
4cc/	.
8cc/L	-flur
8bJ	.
8aL	das
8bJ	.
=16	=16
2cc/}	Grab.
==	==
!!!AGN: Jugend - Lied, Belehrung, Vertrauen
!!!ONB: ESAC (Essen Associative Code) Database: FINK
!!!AMT: simple quadruple
!!!AIN: vox
!!!EED: Helmut Schaffrath
!!!EEV: 1.0
!!!GTL: Jugendlieder
!!Text: Th. Winkler
!!!source: Musikalischer Hausschatz der Deutschen. Eine Sammlung von über 1000 Liedern und Gesängen mit Singstimmen und Klavierbegleitung. Leipzig, Litterarisches Verlags-Haus.
!!!page: 197
!!!URL-scan: https://www.digitale-sammlungen.de/en/view/bsb11144622?page=194,195
!!!ENC: Anna Maria Matuszewska
!!!EEV: 2024/07/30
*-	*-